src/assets/images/icon-soundcloud.svg

<svg height="80" viewBox="0 0 80 80" width="80" xmlns="http://www.w3.org/2000/svg"><path d="m37.1428577 79.8986187c-9.5483872-.7096774-18.2580648-4.6359448-25.0967746-11.3179725-8.99539181-8.7741937-13.30875593-21.198157-11.71428586-33.6774199 1.99078344-15.6036868 12.99539186-28.59907874 28.11059946-33.19815715 11.6866362-3.55760374 24.6912446-1.44700463 34.5990789 5.60368672 12.1751154 8.67281123 18.5069127 23.05990813 16.6267284 37.78801903-1.9907835 15.6036868-12.9953919 28.5990787-28.1105995 33.1981571-4.497696 1.373272-9.7419357 1.9539171-14.4147468 1.6036867zm10.9216591-25.8986179c1.5207374-.2119816 2.9953918-.7096774 4.2672812-1.437788 3.4470047-1.9907835 5.7603688-5.2350232 6.294931-8.8387098l.1013825-.6635945.4884792.1751152c1.6221199.5714286 3.7880185.4239631 5.3456222-.3502304 1.8248849-.9124424 3.3548388-2.7557604 3.8248849-4.5990784.2211982-.8571429.2396313-2.1935485.0460829-3.1244241-.0737327-.3502304-.3317972-1.0414746-.5622119-1.5207373-.3778802-.7557604-.562212-1.0046083-1.3640554-1.7972351-1.0046083-1.0046083-1.7695852-1.4838709-3.0506913-1.8986175-.5990783-.1935484-.8294931-.2119816-3.3640553-.2396313-1.4930876-.0184332-6.3594471 0-10.8110601.0368663l-8.1013826.0737327-.1751152.2211982c-.1658986.2119816-.1751152.5253456-.1751152 11.5207375v11.3179725l.2119816.1935484c.3410138.3225807 1.9447005.8018433 3.2442396.967742.6175116.0829493 3.1244241.0552995 3.7788019-.0368664zm-10.6267282-3.0046083c.1843318-.1935484.1935484-.3870968.4239631-7.4562213l.2304148-7.2534564-.2396314-3.0506913c-.2211981-2.8571429-.2488479-3.0599078-.4331797-3.2073733-.4516129-.359447-1.3732719-.3041475-1.6682028.1105991-.1382488.1935484-.1843318.6635945-.3225806 3.1612904-.1566821 2.8018433-.1566821 3.2534562 0 10.0368665.1658986 7.5852535.156682 7.4285715.6267281 7.7695853.2949309.2119816 1.124424.1474655 1.3824885-.110599zm-5.6497697-1.9354839c.1843318-.1566821.1935484-.3778802.4700461-6.4792628l.2857143-6.3041476-.2949309-3.0506913c-.2119816-2.3041475-.3225806-3.078341-.4239631-3.1981567-.3133641-.3502304-1.3087558-.3225806-1.5391706.046083-.0921659.1382488-.2027649 1.1244239-.359447 3.2442396l-.2211981 3.0414747.2119815 5.6682029c.1198157 3.1152074.2119816 5.9262674.2119816 6.248848.0092166.7741936.1751152.9400922.921659.9400922.3778802 0 .5990784-.046083.7373272-.156682zm-5.6589863-.0645162c.1658987-.1198156.202765-.5714285.5161291-6.4239632l.3410138-6.3041476-.3410138-3.0599078c-.202765-1.8341014-.3870968-3.1059909-.4608295-3.1981568-.2764977-.3317972-1.2442397-.2857143-1.3917051.0645162-.046083.110599-.2119816 1.5483871-.359447 3.1981567l-.2764977 2.9953917.2672811 5.8525347c.1474654 3.2165899.2764977 6.0276499.2764977 6.248848 0 .5345622.2304147.7557604.8110599.7557604.2488479 0 .5253456-.0552995.6175115-.1290323zm-5.640553-3.2073733c.1382488-.1013825.2119815-.8110599.5529954-4.8294931l.3963133-4.7096775-.3963133-3.0783411c-.359447-2.8110599-.4147466-3.0967742-.5990784-3.2534563-.2396313-.1843318-.8479263-.156682-1.0414747.0552996-.0737327.0737327-.2488479 1.3179723-.4516129 3.2073733l-.3410138 3.0875576.3225807 4.4792628c.1843318 2.4608295.3317972 4.562212.3317972 4.6728111 0 .1013825.0645161.2580645.1474654.3317973.1751152.1751152.8571429.1935483 1.0783411.0368663zm-5.576037-5.4377881c.046083-.0645161.2949309-1.0138249.5345622-2.1198157l.4423964-1.9907834-.4423964-1.9723503c-.2488479-1.078341-.4792626-2-.516129-2.0368664-.1105991-.1290322-.8387097-.0921659-.9769585.046083-.0737328.0645161-.3041475.9861751-.5161291 2.0368664l-.3778802 1.9078341.3963134 2.0276498c.2857143 1.483871.4331797 2.0552996.5437788 2.1198157.2119816.1290323.8018433.1105991.9124424-.0184332z" fill="#ff3a00" transform="matrix(1 0 0 -1 0 79.999999)"/></svg>

<?xml version="1.0" encoding="UTF-8"?>
<svg width="80px" height="80px" viewBox="0 0 80 80" version="1.1" xmlns="http://www.w3.org/2000/svg" xmlns:xlink="http://www.w3.org/1999/xlink">
    <!-- Generator: Sketch 51.2 (57519) - http://www.bohemiancoding.com/sketch -->
    <title>Group</title>
    <desc>Created with Sketch.</desc>
    <defs></defs>
    <g id="Page-1" stroke="none" stroke-width="1" fill="none" fill-rule="evenodd">
        <g id="Group" fill="#FF3A00" fill-rule="nonzero">
            <g id="svg_1" transform="translate(40.000001, 39.999999) scale(-1, 1) rotate(-180.000000) translate(-40.000001, -39.999999) translate(0.000000, -0.000001)">
                <path d="M37.1428577,79.8986187 C27.5944705,79.1889413 18.8847929,75.2626739 12.0460831,68.5806462 C3.05069129,59.8064525 -1.26267283,47.3824892 0.33179724,34.9032263 C2.32258068,19.2995395 13.3271891,6.30414756 28.4423967,1.70506915 C40.1290329,-1.85253459 53.1336413,0.25806452 63.0414756,7.30875587 C75.216591,15.9815671 81.5483883,30.368664 79.668204,45.0967749 C77.6774205,60.7004617 66.6728121,73.6958536 51.5576045,78.294932 C47.0599085,79.668204 41.8156688,80.2488491 37.1428577,79.8986187 Z M48.0645168,54.0000008 C49.5852542,53.7880192 51.0599086,53.2903234 52.331798,52.5622128 C55.7788027,50.5714293 58.0921668,47.3271896 58.626729,43.723503 L58.7281115,43.0599085 L59.2165907,43.2350237 C60.8387106,43.8064523 63.0046092,43.6589868 64.5622129,42.8847933 C66.3870978,41.9723509 67.9170517,40.1290329 68.3870978,38.2857149 C68.608296,37.428572 68.6267291,36.0921664 68.4331807,35.1612908 C68.359448,34.8110604 68.1013835,34.1198162 67.8709688,33.6405535 C67.4930886,32.8847931 67.3087568,32.6359452 66.5069134,31.8433184 C65.5023051,30.8387101 64.7373282,30.3594475 63.4562221,29.9447009 C62.8571438,29.7511525 62.626729,29.7327193 60.0921668,29.7050696 C58.5990792,29.6866364 53.7327197,29.7050696 49.2811067,29.7419359 L41.1797241,29.8156686 L41.0046089,30.0368668 C40.8387103,30.2488484 40.8294937,30.5622124 40.8294937,41.5576043 L40.8294937,52.8755768 L41.0414753,53.0691252 C41.3824891,53.3917059 42.9861758,53.8709685 44.2857149,54.0368672 C44.9032265,54.1198165 47.410139,54.0921667 48.0645168,54.0000008 Z M37.4377886,50.9953925 C37.6221204,50.8018441 37.631337,50.6082957 37.8617517,43.5391712 L38.0921665,36.2857148 L37.8525351,33.2350235 C37.631337,30.3778806 37.6036872,30.1751157 37.4193554,30.0276502 C36.9677425,29.6682032 36.0460835,29.7235027 35.7511526,30.1382493 C35.6129038,30.3317977 35.5668208,30.8018438 35.428572,33.2995397 C35.2718899,36.101383 35.2718899,36.5529959 35.428572,43.3364062 C35.5944706,50.9216597 35.585254,50.7649777 36.0553001,51.1059915 C36.350231,51.3179731 37.1797241,51.253457 37.4377886,50.9953925 Z M31.7880189,49.0599086 C31.9723507,48.9032265 31.9815673,48.6820284 32.258065,42.5806458 L32.5437793,36.2764982 L32.2488484,33.2258069 C32.0368668,30.9216594 31.9262678,30.1474659 31.8248853,30.0276502 C31.5115212,29.6774198 30.5161295,29.7050696 30.2857147,30.0737332 C30.1935488,30.211982 30.0829498,31.1981571 29.9262677,33.3179728 L29.7050696,36.3594475 L29.9170511,42.0276504 C30.0368668,45.1428578 30.1290327,47.9539178 30.1290327,48.2764984 C30.1382493,49.050692 30.3041479,49.2165906 31.0506917,49.2165906 C31.4285719,49.2165906 31.6497701,49.1705076 31.7880189,49.0599086 Z M26.1290326,48.9953924 C26.2949313,48.8755768 26.3317976,48.4239639 26.6451617,42.5714292 L26.9861755,36.2672816 L26.6451617,33.2073738 C26.4423967,31.3732724 26.2580649,30.1013829 26.1843322,30.009217 C25.9078345,29.6774198 24.9400925,29.7235027 24.7926271,30.0737332 C24.7465441,30.1843322 24.5806455,31.6221203 24.4331801,33.2718899 L24.1566824,36.2672816 L24.4239635,42.1198163 C24.5714289,45.3364062 24.7004612,48.1474662 24.7004612,48.3686643 C24.7004612,48.9032265 24.9308759,49.1244247 25.5115211,49.1244247 C25.760369,49.1244247 26.0368667,49.0691252 26.1290326,48.9953924 Z M20.4884796,45.7880191 C20.6267284,45.6866366 20.7004611,44.9769592 21.041475,40.958526 L21.4377883,36.2488485 L21.041475,33.1705074 C20.682028,30.3594475 20.6267284,30.0737332 20.4423966,29.9170511 C20.2027653,29.7327193 19.5944703,29.7603691 19.4009219,29.9723507 C19.3271892,30.0460834 19.152074,31.290323 18.949309,33.179724 L18.6082952,36.2672816 L18.9308759,40.7465444 C19.1152077,43.2073739 19.2626731,45.3087564 19.2626731,45.4193555 C19.2626731,45.520738 19.3271892,45.67742 19.4101385,45.7511528 C19.5852537,45.926268 20.2672814,45.9447011 20.4884796,45.7880191 Z M14.9124426,40.350231 C14.9585256,40.2857149 15.2073735,39.3364061 15.4470048,38.2304153 L15.8894012,36.2396319 L15.4470048,34.2672816 C15.1981569,33.1889406 14.9677422,32.2672816 14.9308758,32.2304152 C14.8202767,32.101383 14.0921661,32.1382493 13.9539173,32.2764982 C13.8801845,32.3410143 13.6497698,33.2626733 13.4377882,34.3133646 L13.059908,36.2211987 L13.4562214,38.2488485 C13.7419357,39.7327195 13.8894011,40.3041481 14.0000002,40.3686642 C14.2119818,40.4976965 14.8018435,40.4792633 14.9124426,40.350231 Z" id="svg_2"></path>
            </g>
        </g>
    </g>
</svg>
